report_00007_2020-12-11T15:55:29.892Z/first-contentful-paint/comparison/line/9_vs_10.svg

<svg width="640" height="500" xmlns="http://www.w3.org/2000/svg" xmlns:xlink="http://www.w3.org/1999/xlink"><path fill="#fff" d="M0 0h640v500H0z"/><defs><path id="d" stroke-width=".222" stroke="currentColor" d="M-1-1h2v2h-2z"/><path id="b" stroke-width=".222" stroke="currentColor" d="M0-1.33l-1.33 2h2.66z"/><path id="f" stroke-width=".222" stroke="currentColor" d="M0 1.33L1.265.411.782-1.067l-1.564-.009-.483 1.487z"/><use xlink:href="#b" id="c" stroke="currentColor" transform="rotate(180)"/><use xlink:href="#d" id="e" stroke="currentColor" transform="rotate(45)"/><circle id="a" stroke-width=".222" stroke="currentColor" cx="0" cy="0" r="1"/></defs><g fill="none" color="#000" stroke="currentColor"><path stroke="#000" d="M62.2 401.2h9m543.8 0h-9"/><text transform="translate(53.9 405.1)" stroke="none" fill="#000" font-family="Arial" font-size="12" text-anchor="end"><tspan>1520</tspan></text></g><g fill="none" color="#000" stroke="currentColor"><path stroke="#000" d="M62.2 352.2h9m543.8 0h-9"/><text transform="translate(53.9 356.1)" stroke="none" fill="#000" font-family="Arial" font-size="12" text-anchor="end"><tspan>1540</tspan></text></g><g fill="none" color="#000" stroke="currentColor"><path stroke="#000" d="M62.2 303.2h9m543.8 0h-9"/><text transform="translate(53.9 307.1)" stroke="none" fill="#000" font-family="Arial" font-size="12" text-anchor="end"><tspan>1560</tspan></text></g><g fill="none" color="#000" stroke="currentColor"><path stroke="#000" d="M62.2 254.2h9m543.8 0h-9"/><text transform="translate(53.9 258.1)" stroke="none" fill="#000" font-family="Arial" font-size="12" text-anchor="end"><tspan>1580</tspan></text></g><g fill="none" color="#000" stroke="currentColor"><path stroke="#000" d="M62.2 205.2h9m543.8 0h-9"/><text transform="translate(53.9 209.1)" stroke="none" fill="#000" font-family="Arial" font-size="12" text-anchor="end"><tspan>1600</tspan></text></g><g fill="none" color="#000" stroke="currentColor"><path stroke="#000" d="M62.2 156.2h9m543.8 0h-9"/><text transform="translate(53.9 160.1)" stroke="none" fill="#000" font-family="Arial" font-size="12" text-anchor="end"><tspan>1620</tspan></text></g><g fill="none" color="#000" stroke="currentColor"><path stroke="#000" d="M62.2 107.2h9m543.8 0h-9"/><text transform="translate(53.9 111.1)" stroke="none" fill="#000" font-family="Arial" font-size="12" text-anchor="end"><tspan>1640</tspan></text></g><g fill="none" color="#000" stroke="currentColor"><path stroke="#000" d="M62.2 58.2h9m543.8 0h-9"/><text transform="translate(53.9 62.1)" stroke="none" fill="#000" font-family="Arial" font-size="12" text-anchor="end"><tspan>1660</tspan></text></g><g fill="none" color="#000" stroke="currentColor"><path stroke="#000" d="M62.2 428v-9m0-400.9v9"/><text transform="translate(62.2 449.9)" stroke="none" fill="#000" font-family="Arial" font-size="12" text-anchor="middle"><tspan>0</tspan></text></g><g fill="none" color="#000" stroke="currentColor"><path stroke="#000" d="M118 428v-9m0-400.9v9"/><text transform="translate(118 449.9)" stroke="none" fill="#000" font-family="Arial" font-size="12" text-anchor="middle"><tspan>10</tspan></text></g><g fill="none" color="#000" stroke="currentColor"><path stroke="#000" d="M173.9 428v-9m0-400.9v9"/><text transform="translate(173.9 449.9)" stroke="none" fill="#000" font-family="Arial" font-size="12" text-anchor="middle"><tspan>20</tspan></text></g><g fill="none" color="#000" stroke="currentColor"><path stroke="#000" d="M229.7 428v-9m0-400.9v9"/><text transform="translate(229.7 449.9)" stroke="none" fill="#000" font-family="Arial" font-size="12" text-anchor="middle"><tspan>30</tspan></text></g><g fill="none" color="#000" stroke="currentColor"><path stroke="#000" d="M285.6 428v-9m0-400.9v9"/><text transform="translate(285.6 449.9)" stroke="none" fill="#000" font-family="Arial" font-size="12" text-anchor="middle"><tspan>40</tspan></text></g><g fill="none" color="#000" stroke="currentColor"><path stroke="#000" d="M341.4 428v-9m0-400.9v9"/><text transform="translate(341.4 449.9)" stroke="none" fill="#000" font-family="Arial" font-size="12" text-anchor="middle"><tspan>50</tspan></text></g><g fill="none" color="#000" stroke="currentColor"><path stroke="#000" d="M397.2 428v-9m0-400.9v9"/><text transform="translate(397.2 449.9)" stroke="none" fill="#000" font-family="Arial" font-size="12" text-anchor="middle"><tspan>60</tspan></text></g><g fill="none" color="#000" stroke="currentColor"><path stroke="#000" d="M453.1 428v-9m0-400.9v9"/><text transform="translate(453.1 449.9)" stroke="none" fill="#000" font-family="Arial" font-size="12" text-anchor="middle"><tspan>70</tspan></text></g><g fill="none" color="#000" stroke="currentColor"><path stroke="#000" d="M508.9 428v-9m0-400.9v9"/><text transform="translate(508.9 449.9)" stroke="none" fill="#000" font-family="Arial" font-size="12" text-anchor="middle"><tspan>80</tspan></text></g><g fill="none" color="#000" stroke="currentColor"><path stroke="#000" d="M564.7 428v-9m0-400.9v9"/><text transform="translate(564.7 449.9)" stroke="none" fill="#000" font-family="Arial" font-size="12" text-anchor="middle"><tspan>90</tspan></text></g><path stroke="#000" d="M62.2 18.1V428H615V18.1H62.2z" fill="none" color="#000"/><text transform="translate(279.8 467.9)" stroke="none" fill="#000" font-family="Arial" font-size="12" text-anchor="end" color="#000"><tspan>pages+cached+noexternal+nocss</tspan></text><path stroke="#9400D3" d="M288.1 464h42.2M62.2 38.3l5.6 2.1 5.6-2.4 5.6 5.3 5.5-9.8 5.6 2 5.6 5.2 5.6 5.4 5.6-7.7 5.6.7L118 36l5.6 1.4 5.6-2.2 5.6 3.4 5.6-1.8L146 38l5.5.3 5.6 2.8 5.6-3.2 5.6-9.3 5.6 5.1 5.6 7.6 5.5-7.4 5.6 1.4 5.6 7.4 5.6 1.6 5.6-9.2L213 26l5.5 13.8 5.6-4.4 5.6-2.7 5.6 3.7 5.6 2.7 5.6-1.2 5.6-1.8 5.5-9 5.6 10.9 5.6.3 5.6-2.1 5.6 9.7 5.6-.9 5.5-6.1 5.6 9.1 5.6-9.9 5.6 1.9 5.6 3.9 5.6-1.3 5.5-.7 5.6-13.9 5.6 14.5 5.6-.7 5.6-3.1 5.6-.5 5.5-1.2 5.6-3.9 5.6 1.3 5.6 12.2 5.6-9 5.6 3.7 5.5.1 5.6 2.8 5.6-3 5.6 1.3 5.6-6 5.6.6 5.5 1.6 5.6-6.4 5.6 4.5 5.6-1.4 5.6.7 5.6 11.2 5.6-11.9 5.5 2.6 5.6-1.5 5.6-1.2 5.6 3.3 5.6-5.6 5.6.5 5.5 3.8 5.6-1.1 5.6 6.8 5.6-8.3 5.6 3.2 5.6-1 5.5 1.2 5.6 7.3 5.6-8.4 5.6 2.7 5.6-6.6 5.6 10.9 5.5-3.8 5.6-2.7 5.6.2 5.6 5.7 5.6-3.6h5.6l5.5-3 5.6.5 5.6-.4L615 35" fill="none" color="#000"/><text transform="translate(279.8 485.9)" stroke="none" fill="#000" font-family="Arial" font-size="12" text-anchor="end" color="#000"><tspan>pages+cached+noexternal+nojs</tspan></text><path stroke="#009E73" d="M288.1 482h42.2M62.2 412.3l5.6-8.3 5.6 10.3L79 413l5.5 1.6 5.6 5.4 5.6-7.5 5.6 1.6 5.6.2 5.6-7.1 5.5-2.8 5.6 10.4 5.6 3.4 5.6-3.4 5.6-7.7 5.6 7.8 5.5-3.6 5.6-3.2 5.6 3 5.6.9 5.6-2.5 5.6 8.9 5.5-4.7 5.6-5.8 5.6 8.8 5.6-2.2h5.6l5.6-7.1 5.5 9.1 5.6-5.7 5.6 5.9 5.6 1.1 5.6-47.6 5.6 40.9 5.6 2.7 5.5 2.3 5.6-1.9 5.6 2.8 5.6-.5 5.6-1.4 5.6-3.1 5.5 1.6 5.6-41.5 5.6 40.4 5.6 4.2 5.6-5.1 5.6 6.1 5.5-5.4 5.6-5.6 5.6 7.5 5.6-46.5 5.6 52.4 5.6-10.4 5.5 4.7 5.6-1.2 5.6-39.3 5.6 43.3 5.6-7.1 5.6 6.6 5.5-16 5.6 17.4 5.6-9.1 5.6 1.4 5.6 4.6 5.6 2.8 5.5-6.2 5.6 1.9 5.6 2.3 5.6-.5 5.6-4.2 5.6-.2 5.6 6 5.5-.7 5.6-3.7 5.6 4.7 5.6-2 5.6-3.7 5.6-2.8 5.5 3.5 5.6-.2 5.6-2.4 5.6-.4 5.6 5.1 5.6 3.1 5.5-8.1 5.6 5.7 5.6-.3 5.6 1.6 5.6-4 5.6 6.2 5.5-7.7 5.6 3.1 5.6.1 5.6-1.6 5.6 1 5.6 3.1 5.5-1.6h5.6l5.6-1.5 5.6 5.9" fill="none" color="#000"/><text transform="translate(579.3 467.9)" stroke="none" fill="#000" font-family="Arial" font-size="12" text-anchor="end" color="#000"><tspan>score p10=2336</tspan></text><path stroke="#56B4E9" d="M587.6 464h42.2" fill="none" color="#000"/><g><text transform="translate(579.3 485.9)" stroke="none" fill="#000" font-family="Arial" font-size="12" text-anchor="end" color="#000"><tspan>score median=4000</tspan></text><path stroke="#E69F00" d="M587.6 482h42.2" fill="none" color="#000"/></g><g fill="none" color="#000" stroke="currentColor"><path stroke="#000" d="M62.2 18.1V428H615V18.1H62.2z"/></g></svg>

<?xml version="1.0" encoding="utf-8"  standalone="no"?>
<svg 
 width="640" height="500"
 viewBox="0 0 640 500"
 xmlns="http://www.w3.org/2000/svg"
 xmlns:xlink="http://www.w3.org/1999/xlink"
>

<title>Gnuplot</title>
<desc>Produced by GNUPLOT 5.4 patchlevel 0 </desc>

<g id="gnuplot_canvas">

<rect x="0" y="0" width="640" height="500" fill="#ffffff"/>
<defs>

	<circle id='gpDot' r='0.5' stroke-width='0.5' stroke='currentColor'/>
	<path id='gpPt0' stroke-width='0.222' stroke='currentColor' d='M-1,0 h2 M0,-1 v2'/>
	<path id='gpPt1' stroke-width='0.222' stroke='currentColor' d='M-1,-1 L1,1 M1,-1 L-1,1'/>
	<path id='gpPt2' stroke-width='0.222' stroke='currentColor' d='M-1,0 L1,0 M0,-1 L0,1 M-1,-1 L1,1 M-1,1 L1,-1'/>
	<rect id='gpPt3' stroke-width='0.222' stroke='currentColor' x='-1' y='-1' width='2' height='2'/>
	<rect id='gpPt4' stroke-width='0.222' stroke='currentColor' fill='currentColor' x='-1' y='-1' width='2' height='2'/>
	<circle id='gpPt5' stroke-width='0.222' stroke='currentColor' cx='0' cy='0' r='1'/>
	<use xlink:href='#gpPt5' id='gpPt6' fill='currentColor' stroke='none'/>
	<path id='gpPt7' stroke-width='0.222' stroke='currentColor' d='M0,-1.33 L-1.33,0.67 L1.33,0.67 z'/>
	<use xlink:href='#gpPt7' id='gpPt8' fill='currentColor' stroke='none'/>
	<use xlink:href='#gpPt7' id='gpPt9' stroke='currentColor' transform='rotate(180)'/>
	<use xlink:href='#gpPt9' id='gpPt10' fill='currentColor' stroke='none'/>
	<use xlink:href='#gpPt3' id='gpPt11' stroke='currentColor' transform='rotate(45)'/>
	<use xlink:href='#gpPt11' id='gpPt12' fill='currentColor' stroke='none'/>
	<path id='gpPt13' stroke-width='0.222' stroke='currentColor' d='M0,1.330 L1.265,0.411 L0.782,-1.067 L-0.782,-1.076 L-1.265,0.411 z'/>
	<use xlink:href='#gpPt13' id='gpPt14' fill='currentColor' stroke='none'/>
	<filter id='textbox' filterUnits='objectBoundingBox' x='0' y='0' height='1' width='1'>
	  <feFlood flood-color='#FFFFFF' flood-opacity='1' result='bgnd'/>
	  <feComposite in='SourceGraphic' in2='bgnd' operator='atop'/>
	</filter>
	<filter id='greybox' filterUnits='objectBoundingBox' x='0' y='0' height='1' width='1'>
	  <feFlood flood-color='lightgrey' flood-opacity='1' result='grey'/>
	  <feComposite in='SourceGraphic' in2='grey' operator='atop'/>
	</filter>
</defs>
<g fill="none" color="#FFFFFF" stroke="black" stroke-width="1.00" stroke-linecap="butt" stroke-linejoin="miter">
</g>
<g fill="none" color="black" stroke="currentColor" stroke-width="1.00" stroke-linecap="butt" stroke-linejoin="miter">
	<path stroke='black'  d='M62.2,401.2 L71.2,401.2 M615.0,401.2 L606.0,401.2  '/>	<g transform="translate(53.9,405.1)" stroke="none" fill="black" font-family="Arial" font-size="12.00"  text-anchor="end">
		<text><tspan font-family="Arial" > 1520</tspan></text>
	</g>
</g>
<g fill="none" color="black" stroke="currentColor" stroke-width="1.00" stroke-linecap="butt" stroke-linejoin="miter">
	<path stroke='black'  d='M62.2,352.2 L71.2,352.2 M615.0,352.2 L606.0,352.2  '/>	<g transform="translate(53.9,356.1)" stroke="none" fill="black" font-family="Arial" font-size="12.00"  text-anchor="end">
		<text><tspan font-family="Arial" > 1540</tspan></text>
	</g>
</g>
<g fill="none" color="black" stroke="currentColor" stroke-width="1.00" stroke-linecap="butt" stroke-linejoin="miter">
	<path stroke='black'  d='M62.2,303.2 L71.2,303.2 M615.0,303.2 L606.0,303.2  '/>	<g transform="translate(53.9,307.1)" stroke="none" fill="black" font-family="Arial" font-size="12.00"  text-anchor="end">
		<text><tspan font-family="Arial" > 1560</tspan></text>
	</g>
</g>
<g fill="none" color="black" stroke="currentColor" stroke-width="1.00" stroke-linecap="butt" stroke-linejoin="miter">
	<path stroke='black'  d='M62.2,254.2 L71.2,254.2 M615.0,254.2 L606.0,254.2  '/>	<g transform="translate(53.9,258.1)" stroke="none" fill="black" font-family="Arial" font-size="12.00"  text-anchor="end">
		<text><tspan font-family="Arial" > 1580</tspan></text>
	</g>
</g>
<g fill="none" color="black" stroke="currentColor" stroke-width="1.00" stroke-linecap="butt" stroke-linejoin="miter">
	<path stroke='black'  d='M62.2,205.2 L71.2,205.2 M615.0,205.2 L606.0,205.2  '/>	<g transform="translate(53.9,209.1)" stroke="none" fill="black" font-family="Arial" font-size="12.00"  text-anchor="end">
		<text><tspan font-family="Arial" > 1600</tspan></text>
	</g>
</g>
<g fill="none" color="black" stroke="currentColor" stroke-width="1.00" stroke-linecap="butt" stroke-linejoin="miter">
	<path stroke='black'  d='M62.2,156.2 L71.2,156.2 M615.0,156.2 L606.0,156.2  '/>	<g transform="translate(53.9,160.1)" stroke="none" fill="black" font-family="Arial" font-size="12.00"  text-anchor="end">
		<text><tspan font-family="Arial" > 1620</tspan></text>
	</g>
</g>
<g fill="none" color="black" stroke="currentColor" stroke-width="1.00" stroke-linecap="butt" stroke-linejoin="miter">
	<path stroke='black'  d='M62.2,107.2 L71.2,107.2 M615.0,107.2 L606.0,107.2  '/>	<g transform="translate(53.9,111.1)" stroke="none" fill="black" font-family="Arial" font-size="12.00"  text-anchor="end">
		<text><tspan font-family="Arial" > 1640</tspan></text>
	</g>
</g>
<g fill="none" color="black" stroke="currentColor" stroke-width="1.00" stroke-linecap="butt" stroke-linejoin="miter">
	<path stroke='black'  d='M62.2,58.2 L71.2,58.2 M615.0,58.2 L606.0,58.2  '/>	<g transform="translate(53.9,62.1)" stroke="none" fill="black" font-family="Arial" font-size="12.00"  text-anchor="end">
		<text><tspan font-family="Arial" > 1660</tspan></text>
	</g>
</g>
<g fill="none" color="black" stroke="currentColor" stroke-width="1.00" stroke-linecap="butt" stroke-linejoin="miter">
	<path stroke='black'  d='M62.2,428.0 L62.2,419.0 M62.2,18.1 L62.2,27.1  '/>	<g transform="translate(62.2,449.9)" stroke="none" fill="black" font-family="Arial" font-size="12.00"  text-anchor="middle">
		<text><tspan font-family="Arial" > 0</tspan></text>
	</g>
</g>
<g fill="none" color="black" stroke="currentColor" stroke-width="1.00" stroke-linecap="butt" stroke-linejoin="miter">
	<path stroke='black'  d='M118.0,428.0 L118.0,419.0 M118.0,18.1 L118.0,27.1  '/>	<g transform="translate(118.0,449.9)" stroke="none" fill="black" font-family="Arial" font-size="12.00"  text-anchor="middle">
		<text><tspan font-family="Arial" > 10</tspan></text>
	</g>
</g>
<g fill="none" color="black" stroke="currentColor" stroke-width="1.00" stroke-linecap="butt" stroke-linejoin="miter">
	<path stroke='black'  d='M173.9,428.0 L173.9,419.0 M173.9,18.1 L173.9,27.1  '/>	<g transform="translate(173.9,449.9)" stroke="none" fill="black" font-family="Arial" font-size="12.00"  text-anchor="middle">
		<text><tspan font-family="Arial" > 20</tspan></text>
	</g>
</g>
<g fill="none" color="black" stroke="currentColor" stroke-width="1.00" stroke-linecap="butt" stroke-linejoin="miter">
	<path stroke='black'  d='M229.7,428.0 L229.7,419.0 M229.7,18.1 L229.7,27.1  '/>	<g transform="translate(229.7,449.9)" stroke="none" fill="black" font-family="Arial" font-size="12.00"  text-anchor="middle">
		<text><tspan font-family="Arial" > 30</tspan></text>
	</g>
</g>
<g fill="none" color="black" stroke="currentColor" stroke-width="1.00" stroke-linecap="butt" stroke-linejoin="miter">
	<path stroke='black'  d='M285.6,428.0 L285.6,419.0 M285.6,18.1 L285.6,27.1  '/>	<g transform="translate(285.6,449.9)" stroke="none" fill="black" font-family="Arial" font-size="12.00"  text-anchor="middle">
		<text><tspan font-family="Arial" > 40</tspan></text>
	</g>
</g>
<g fill="none" color="black" stroke="currentColor" stroke-width="1.00" stroke-linecap="butt" stroke-linejoin="miter">
	<path stroke='black'  d='M341.4,428.0 L341.4,419.0 M341.4,18.1 L341.4,27.1  '/>	<g transform="translate(341.4,449.9)" stroke="none" fill="black" font-family="Arial" font-size="12.00"  text-anchor="middle">
		<text><tspan font-family="Arial" > 50</tspan></text>
	</g>
</g>
<g fill="none" color="black" stroke="currentColor" stroke-width="1.00" stroke-linecap="butt" stroke-linejoin="miter">
	<path stroke='black'  d='M397.2,428.0 L397.2,419.0 M397.2,18.1 L397.2,27.1  '/>	<g transform="translate(397.2,449.9)" stroke="none" fill="black" font-family="Arial" font-size="12.00"  text-anchor="middle">
		<text><tspan font-family="Arial" > 60</tspan></text>
	</g>
</g>
<g fill="none" color="black" stroke="currentColor" stroke-width="1.00" stroke-linecap="butt" stroke-linejoin="miter">
	<path stroke='black'  d='M453.1,428.0 L453.1,419.0 M453.1,18.1 L453.1,27.1  '/>	<g transform="translate(453.1,449.9)" stroke="none" fill="black" font-family="Arial" font-size="12.00"  text-anchor="middle">
		<text><tspan font-family="Arial" > 70</tspan></text>
	</g>
</g>
<g fill="none" color="black" stroke="currentColor" stroke-width="1.00" stroke-linecap="butt" stroke-linejoin="miter">
	<path stroke='black'  d='M508.9,428.0 L508.9,419.0 M508.9,18.1 L508.9,27.1  '/>	<g transform="translate(508.9,449.9)" stroke="none" fill="black" font-family="Arial" font-size="12.00"  text-anchor="middle">
		<text><tspan font-family="Arial" > 80</tspan></text>
	</g>
</g>
<g fill="none" color="black" stroke="currentColor" stroke-width="1.00" stroke-linecap="butt" stroke-linejoin="miter">
	<path stroke='black'  d='M564.7,428.0 L564.7,419.0 M564.7,18.1 L564.7,27.1  '/>	<g transform="translate(564.7,449.9)" stroke="none" fill="black" font-family="Arial" font-size="12.00"  text-anchor="middle">
		<text><tspan font-family="Arial" > 90</tspan></text>
	</g>
</g>
<g fill="none" color="black" stroke="currentColor" stroke-width="1.00" stroke-linecap="butt" stroke-linejoin="miter">
</g>
<g fill="none" color="black" stroke="currentColor" stroke-width="1.00" stroke-linecap="butt" stroke-linejoin="miter">
	<path stroke='black'  d='M62.2,18.1 L62.2,428.0 L615.0,428.0 L615.0,18.1 L62.2,18.1 Z  '/></g>
<g fill="none" color="black" stroke="currentColor" stroke-width="1.00" stroke-linecap="butt" stroke-linejoin="miter">
</g>
	<g id="gnuplot_plot_1" ><title>pages+cached+noexternal+nocss</title>
<g fill="none" color="black" stroke="currentColor" stroke-width="1.00" stroke-linecap="butt" stroke-linejoin="miter">
	<g transform="translate(279.8,467.9)" stroke="none" fill="black" font-family="Arial" font-size="12.00"  text-anchor="end">
		<text><tspan font-family="Arial" >pages+cached+noexternal+nocss</tspan></text>
	</g>
</g>
<g fill="none" color="black" stroke="currentColor" stroke-width="1.00" stroke-linecap="butt" stroke-linejoin="miter">
	<path stroke='rgb(148,   0, 211)'  d='M288.1,464.0 L330.3,464.0 M62.2,38.3 L67.8,40.4 L73.4,38.0 L79.0,43.3 L84.5,33.5 L90.1,35.5
		L95.7,40.7 L101.3,46.1 L106.9,38.4 L112.5,39.1 L118.0,36.0 L123.6,37.4 L129.2,35.2 L134.8,38.6
		L140.4,36.8 L146.0,38.0 L151.5,38.3 L157.1,41.1 L162.7,37.9 L168.3,28.6 L173.9,33.7 L179.5,41.3
		L185.0,33.9 L190.6,35.3 L196.2,42.7 L201.8,44.3 L207.4,35.1 L213.0,26.0 L218.5,39.8 L224.1,35.4
		L229.7,32.7 L235.3,36.4 L240.9,39.1 L246.5,37.9 L252.1,36.1 L257.6,27.1 L263.2,38.0 L268.8,38.3
		L274.4,36.2 L280.0,45.9 L285.6,45.0 L291.1,38.9 L296.7,48.0 L302.3,38.1 L307.9,40.0 L313.5,43.9
		L319.1,42.6 L324.6,41.9 L330.2,28.0 L335.8,42.5 L341.4,41.8 L347.0,38.7 L352.6,38.2 L358.1,37.0
		L363.7,33.1 L369.3,34.4 L374.9,46.6 L380.5,37.6 L386.1,41.3 L391.6,41.4 L397.2,44.2 L402.8,41.2
		L408.4,42.5 L414.0,36.5 L419.6,37.1 L425.1,38.7 L430.7,32.3 L436.3,36.8 L441.9,35.4 L447.5,36.1
		L453.1,47.3 L458.7,35.4 L464.2,38.0 L469.8,36.5 L475.4,35.3 L481.0,38.6 L486.6,33.0 L492.2,33.5
		L497.7,37.3 L503.3,36.2 L508.9,43.0 L514.5,34.7 L520.1,37.9 L525.7,36.9 L531.2,38.1 L536.8,45.4
		L542.4,37.0 L548.0,39.7 L553.6,33.1 L559.2,44.0 L564.7,40.2 L570.3,37.5 L575.9,37.7 L581.5,43.4
		L587.1,39.8 L592.7,39.8 L598.2,36.8 L603.8,37.3 L609.4,36.9 L615.0,35.0  '/></g>
	</g>
	<g id="gnuplot_plot_2" ><title>pages+cached+noexternal+nojs</title>
<g fill="none" color="black" stroke="currentColor" stroke-width="1.00" stroke-linecap="butt" stroke-linejoin="miter">
	<g transform="translate(279.8,485.9)" stroke="none" fill="black" font-family="Arial" font-size="12.00"  text-anchor="end">
		<text><tspan font-family="Arial" >pages+cached+noexternal+nojs</tspan></text>
	</g>
</g>
<g fill="none" color="black" stroke="currentColor" stroke-width="1.00" stroke-linecap="butt" stroke-linejoin="miter">
	<path stroke='rgb(  0, 158, 115)'  d='M288.1,482.0 L330.3,482.0 M62.2,412.3 L67.8,404.0 L73.4,414.3 L79.0,413.0 L84.5,414.6 L90.1,420.0
		L95.7,412.5 L101.3,414.1 L106.9,414.3 L112.5,407.2 L118.0,404.4 L123.6,414.8 L129.2,418.2 L134.8,414.8
		L140.4,407.1 L146.0,414.9 L151.5,411.3 L157.1,408.1 L162.7,411.1 L168.3,412.0 L173.9,409.5 L179.5,418.4
		L185.0,413.7 L190.6,407.9 L196.2,416.7 L201.8,414.5 L207.4,414.5 L213.0,407.4 L218.5,416.5 L224.1,410.8
		L229.7,416.7 L235.3,417.8 L240.9,370.2 L246.5,411.1 L252.1,413.8 L257.6,416.1 L263.2,414.2 L268.8,417.0
		L274.4,416.5 L280.0,415.1 L285.6,412.0 L291.1,413.6 L296.7,372.1 L302.3,412.5 L307.9,416.7 L313.5,411.6
		L319.1,417.7 L324.6,412.3 L330.2,406.7 L335.8,414.2 L341.4,367.7 L347.0,420.1 L352.6,409.7 L358.1,414.4
		L363.7,413.2 L369.3,373.9 L374.9,417.2 L380.5,410.1 L386.1,416.7 L391.6,400.7 L397.2,418.1 L402.8,409.0
		L408.4,410.4 L414.0,415.0 L419.6,417.8 L425.1,411.6 L430.7,413.5 L436.3,415.8 L441.9,415.3 L447.5,411.1
		L453.1,410.9 L458.7,416.9 L464.2,416.2 L469.8,412.5 L475.4,417.2 L481.0,415.2 L486.6,411.5 L492.2,408.7
		L497.7,412.2 L503.3,412.0 L508.9,409.6 L514.5,409.2 L520.1,414.3 L525.7,417.4 L531.2,409.3 L536.8,415.0
		L542.4,414.7 L548.0,416.3 L553.6,412.3 L559.2,418.5 L564.7,410.8 L570.3,413.9 L575.9,414.0 L581.5,412.4
		L587.1,413.4 L592.7,416.5 L598.2,414.9 L603.8,414.9 L609.4,413.4 L615.0,419.3  '/></g>
	</g>
	<g id="gnuplot_plot_3" ><title>score p10=2336</title>
<g fill="none" color="black" stroke="currentColor" stroke-width="1.00" stroke-linecap="butt" stroke-linejoin="miter">
	<g transform="translate(579.3,467.9)" stroke="none" fill="black" font-family="Arial" font-size="12.00"  text-anchor="end">
		<text><tspan font-family="Arial" >score p10=2336</tspan></text>
	</g>
</g>
<g fill="none" color="black" stroke="currentColor" stroke-width="1.00" stroke-linecap="butt" stroke-linejoin="miter">
	<path stroke='rgb( 86, 180, 233)'  d='M587.6,464.0 L629.8,464.0  '/></g>
	</g>
	<g id="gnuplot_plot_4" ><title>score median=4000</title>
<g fill="none" color="black" stroke="currentColor" stroke-width="1.00" stroke-linecap="butt" stroke-linejoin="miter">
	<g transform="translate(579.3,485.9)" stroke="none" fill="black" font-family="Arial" font-size="12.00"  text-anchor="end">
		<text><tspan font-family="Arial" >score median=4000</tspan></text>
	</g>
</g>
<g fill="none" color="black" stroke="currentColor" stroke-width="1.00" stroke-linecap="butt" stroke-linejoin="miter">
	<path stroke='rgb(230, 159,   0)'  d='M587.6,482.0 L629.8,482.0  '/></g>
	</g>
<g fill="none" color="#FFFFFF" stroke="rgb(230, 159,   0)" stroke-width="2.00" stroke-linecap="butt" stroke-linejoin="miter">
</g>
<g fill="none" color="black" stroke="currentColor" stroke-width="2.00" stroke-linecap="butt" stroke-linejoin="miter">
</g>
<g fill="none" color="black" stroke="black" stroke-width="1.00" stroke-linecap="butt" stroke-linejoin="miter">
</g>
<g fill="none" color="black" stroke="currentColor" stroke-width="1.00" stroke-linecap="butt" stroke-linejoin="miter">
	<path stroke='black'  d='M62.2,18.1 L62.2,428.0 L615.0,428.0 L615.0,18.1 L62.2,18.1 Z  '/></g>
<g fill="none" color="black" stroke="currentColor" stroke-width="1.00" stroke-linecap="butt" stroke-linejoin="miter">
</g>
</g>
</svg>
